icon-themes/sifr_svg/cmd/sc_newarrangement.svg

<svg viewBox="0 0 16 16" xmlns="http://www.w3.org/2000/svg"><g fill="#555753"><path d="m7.3007812 1-1.6152343 1.6152344.1386719.5605468 1.4179687.3535157v1.2988281l7.7578125 7.757813v-11.585938h-.667969l-.132812.0996094-3.646485 2.7402344-2.8378902-2.8398438zm-6.3007812 4v9h10.585938l-6.757813-6.7578125h-1.2988281l-.3535157-1.4179687-1.4179687-.3535157v-.4707031z" opacity=".35"/><path d="m10.414062 8 4.585938 4.585938v-2.585938h-2.285156l-2-2zm-3.9707026.8574219-1.1425782 1.1425781h-4.3007812v4h10.585938z"/><path d="m4.5 2-.5 2-2 .5 2 .5.5 2 .5-2 2-.5-2-.5zm2.5 4-1 1 7 7 1-1z"/></g></svg>

<svg xmlns="http://www.w3.org/2000/svg" viewBox="0 0 16 16">
  <path
     style="opacity:0.35;fill:#555753"
     d="M 7.3007812,1 5.6855469,2.6152344 5.8242188,3.1757812 7.2421875,3.5292969 V 4.828125 L 15,12.585938 V 1 H 14.332031 L 14.199219,1.0996094 10.552734,3.8398438 7.7148438,1 Z M 1,5 v 9 H 11.585938 L 4.828125,7.2421875 H 3.5292969 L 3.1757812,5.8242188 1.7578125,5.4707031 V 5 Z"
     />
  <path
     style="fill:#555753"
     d="M 10.414062,8 15,12.585938 V 10 h -2.285156 l -2,-2 z M 6.4433594,8.8574219 5.3007812,10 H 1 v 4 h 10.585938 z"
     />
  <path
     style="fill:#555753"
     d="M 4.5,2 4,4 2,4.5 4,5 4.5,7 5,5 7,4.5 5,4 Z M 7,6 6,7 l 7,7 1,-1 z"
     />
</svg>
